Sources/FrostedUI/Resources/Icons.xcassets/photoFilled32.imageset/photo-filled-32.svg

<svg width="32" height="32" viewBox="0 0 32 32" fill="none" xmlns="http://www.w3.org/2000/svg" data-fui-icon="true">
  <path
    d="M24.25 2C27.4256 2 30 4.57436 30 7.75V24.25C30 24.3144 29.9962 24.3785 29.9941 24.4424C29.9956 24.4616 30 24.4806 30 24.5C30 25.8482 29.4743 27.0723 28.6191 27.9834C27.5645 29.2164 25.9997 30 24.25 30H7.75C4.57437 30 2 27.4256 2 24.25V7.75C2 4.57437 4.57437 2.00001 7.75 2H24.25ZM7.75 3.5C5.40279 3.50001 3.5 5.40279 3.5 7.75V19.0078L6.24316 15.8838C7.01506 15.0045 8.1288 14.5 9.29883 14.5C10.4146 14.5 11.4813 14.959 12.249 15.7686L16.3066 20.0479L18 17.9648C18.1883 17.7331 18.4002 17.5255 18.6309 17.3447C18.6883 17.2997 18.747 17.2565 18.8066 17.2148C19.4657 16.7545 20.257 16.5 21.0781 16.5C22.1764 16.5 23.2257 16.9554 23.9756 17.7578L28.5 22.5986V7.75C28.5 5.40279 26.5972 3.5 24.25 3.5H7.75ZM18 6C20.2091 6 22 7.79086 22 10C22 12.2091 20.2091 14 18 14C15.7909 14 14 12.2091 14 10C14 7.79086 15.7909 6.00001 18 6Z"
    fill="currentColor"
  />
</svg>

<svg xmlns="http://www.w3.org/2000/svg" width="32" height="32" fill="none" data-fui-icon="true" viewBox="0 0 32 32"><path fill="currentColor" d="M24.25 2A5.75 5.75 0 0 1 30 7.75v16.5q-.002.096-.006.192.004.03.006.058a5.07 5.07 0 0 1-1.38 3.483A5.73 5.73 0 0 1 24.25 30H7.75A5.75 5.75 0 0 1 2 24.25V7.75A5.75 5.75 0 0 1 7.75 2zM7.75 3.5A4.25 4.25 0 0 0 3.5 7.75v11.258l2.743-3.124a4.067 4.067 0 0 1 6.006-.115l4.058 4.279L18 17.965a3.96 3.96 0 0 1 3.078-1.465c1.098 0 2.148.455 2.898 1.258l4.524 4.84V7.75a4.25 4.25 0 0 0-4.25-4.25zM18 6a4 4 0 1 1 0 8 4 4 0 0 1 0-8"/></svg>
